!!!OTL: Wiedersehen an der Bahre.
!!!OTL-incipit: Ein Juengling wollt' zum Kampfe gehn,
!!!ARE: Europa, Mitteleuropa, Deutschland (BRD), Rheinland, Wuppertal, Beyenburg
!!!YOR: 3, S. 70
!!    ????
!!!SCT: Q0056C
!!!YEM: Copyright 1995, estate of Helmut Schaffrath.
**kern	**text
*ICvox	*
*M3/4	*
*k[b-e-a-]	*
*E-:	*
!LO:TX:a:t=Mäßig langsam.	!
{8e-	1._Ein
=1	=1
8e-	Jüng-
8g	-ling
(<4b-	wollt'
8a-)	.
8g	ʒum
=2	=2
8b-	Kampfe
8f	.
4f	gehn,
8r}	.
{8f	ſein'
=3	=3
8f	Braut
8cc	fing
4b-	an
4f	ʒu
=4	=4
4a-^	wei-
4g	-nen,
8r}	.
{8b-	und
=5	=5
8b-	er
8dd	ver-
4.ff	-ſprach,
8a-	ihr
=6	=6
8g	treu
8b-	ʒu
4.ee-}	ſein,
{8ee-	ſie
=7	=7
8dd	a-
8cc	-berkonnt's
4b-	.
4f	nicht
=8	=8
4a-^	glau-
4g	-ben.
8r}	.
==	==
!!!AGN: Ballade, Abschied, Enttaeuschung, Tod, Selbstmord
!!!ONB: ESAC (Essen Associative Code) Database: BALLADE
!!!AMT: simple triple
!!!AIN: vox
!!!EED: Helmut Schaffrath
!!!EEV: 1.0
!!@@COMMENT:"A 135683; aus Beyenburg im Wuppertal (Rheinland). Nachl. Böhme."
!!@@END:
!!!RDF**kern: <= below
!!!source: Deutsche Volkslieder mit ihren Melodien. Herausgegeben vom Deutschen Volksliedarchiv. Dritter Band Balladen. Berlin 1954.
!!!page: 70
!!!ENC: Anna Maria Matuszewska
!!!EEV: 2025/02/18
*-	*-
